svg_80x80/app-engine.svg

<svg viewBox="0 0 80 80" xmlns="http://www.w3.org/2000/svg">
<rect width="100%" height="100%" fill="white"/>
<path d="M73.1837 43.3108L69.791 49.1711L59.2317 67.4595C58.1433 69.3463 56.1295 70.5259 53.9523 70.5259H26.048C23.8708 70.5259 21.8569 69.3467 20.7686 67.4595L6.8166 43.3108C5.7278 41.4241 5.7278 39.1015 6.8166 37.1968L20.7686 13.0481C21.8569 11.1613 23.8708 10 26.048 10H53.9523C56.1295 10 58.1433 11.1613 59.2317 13.0481L73.1837 37.1968C74.2721 39.1015 74.2721 41.4241 73.1837 43.3108Z" fill="#4285F4"/>
<path d="M59.231 67.4585L69.7903 49.1702L59.7934 39.1915C59.9023 39.3185 59.9567 39.4636 59.9567 39.645V41.5682C59.9567 42.0037 59.6483 42.2758 59.1947 42.4209H54.2597C54.3686 41.7134 54.423 40.9876 54.423 40.2619C54.423 39.2096 54.3142 38.1936 54.0965 37.2139L59.1403 38.7923L40.8882 20.5584C40.9971 20.6854 41.0878 20.8668 41.1604 21.0664L42.9928 26.1465C42.0131 25.9469 41.0152 25.8381 39.9992 25.8381C39.0195 25.8381 38.0579 25.9288 37.1326 26.1284L37.1689 25.9832L37.0963 26.1102L39.0558 28.0697C39.3642 28.0334 39.6726 28.0153 39.9992 28.0153C46.7666 28.0153 52.2459 33.4945 52.2459 40.2619C52.2459 47.0112 46.7666 52.5086 39.9992 52.5086C33.2318 52.5086 27.7525 47.0112 27.7525 40.2619C27.7525 40.0023 27.7694 39.7427 27.7859 39.4888C27.7936 39.3701 27.8012 39.2526 27.807 39.137L25.9019 37.2139C25.6842 38.1936 25.5754 39.2096 25.5754 40.2619C25.5754 40.9876 25.6298 41.7134 25.7387 42.4209H20.8037C20.6041 42.3484 20.4408 42.2577 20.3138 42.1488L48.6898 70.5247H53.9513C56.1285 70.5247 58.1424 69.3454 59.231 67.4585Z" fill="#3E7AE3"/>
<path d="M39.9993 43.0633C40.716 43.0633 41.4345 42.7893 41.9806 42.2414C43.0764 41.1455 43.0764 39.3711 41.9806 38.2771C41.4345 37.7292 40.716 37.457 39.9993 37.457C39.2809 37.457 38.5642 37.7292 38.0181 38.2771C36.9223 39.3729 36.9223 41.1473 38.0181 42.2414C38.566 42.7893 39.2809 43.0633 39.9993 43.0633Z" fill="#3E7AE3"/>
<path fill-rule="evenodd" clip-rule="evenodd" d="M39.9992 30.9726C34.8647 30.9726 30.7099 35.1274 30.7099 40.2619C30.7099 45.3965 34.8647 49.5513 39.9992 49.5513C45.1337 49.5513 49.2885 45.3965 49.2885 40.2619C49.2885 35.1274 45.1337 30.9726 39.9992 30.9726ZM40.0899 46.5939C38.4208 46.5939 36.9149 45.9045 35.8263 44.8159L36.9693 43.6547C35.2638 41.9311 35.2638 39.1371 36.9693 37.4135C37.8039 36.597 38.9106 36.1253 40.0899 36.1253C41.2692 36.1253 42.376 36.597 43.2106 37.4135L44.3717 36.2704C45.4603 37.359 46.1498 38.8649 46.1498 40.5341C46.1498 43.8724 43.4283 46.5939 40.0899 46.5939Z" fill="#3E7AE3"/>
<path d="M42.9857 26.1498C42.0208 25.9459 41.0212 25.8371 39.9958 25.8371C39.0129 25.8371 38.054 25.9363 37.1278 26.1236L38.7173 21.0648C38.842 20.6079 39.134 20.3031 39.5543 20.3031H40.3189C40.7392 20.3031 41.0228 20.6079 41.1563 21.0648L42.9857 26.1498Z" fill="white"/>
<path fill-rule="evenodd" clip-rule="evenodd" d="M43.2119 37.423L44.37 36.2653C45.4652 37.3597 46.1433 38.8716 46.1433 40.5392C46.1433 43.8757 43.4294 46.5891 40.0933 46.5891C38.4261 46.5891 36.9138 45.9107 35.8182 44.8159L36.9764 43.659C35.2573 41.9399 35.2573 39.1417 36.9764 37.423C37.809 36.5912 38.9157 36.131 40.0945 36.131C41.2706 36.131 42.3805 36.59 43.2119 37.4206V37.423ZM39.9997 43.0634C40.716 43.0634 41.4343 42.7897 41.9801 42.2423C43.0753 41.1476 43.0753 39.3723 41.9801 38.2776C41.4343 37.7298 40.716 37.4573 39.9997 37.4573C39.2814 37.4573 38.5647 37.7298 38.0177 38.2776C36.9226 39.3731 36.9226 41.1472 38.0177 42.2423C38.5647 42.7897 39.2814 43.0634 39.9997 43.0634Z" fill="white"/>
<path fill-rule="evenodd" clip-rule="evenodd" d="M39.9991 28.0191C33.2385 28.0191 27.7578 33.4993 27.7578 40.2612C27.7578 47.021 33.2385 52.5029 39.9991 52.5029C46.7598 52.5029 52.24 47.021 52.24 40.2612C52.2404 33.4993 46.7598 28.0191 39.9991 28.0191ZM39.9991 49.5484C34.8687 49.5484 30.7099 45.39 30.7099 40.2608C30.7099 35.1303 34.8687 30.9716 39.9991 30.9716C45.1292 30.9716 49.2871 35.1303 49.2871 40.2608C49.2875 45.39 45.1296 49.5484 39.9991 49.5484Z" fill="white"/>
<path d="M59.1985 38.811L54.0947 37.2071C54.307 38.192 54.4214 39.213 54.4214 40.2604C54.4214 40.993 54.3656 41.7125 54.2608 42.4153H59.1981C59.6542 42.2818 59.959 41.9986 59.959 41.5779V39.6469C59.9594 39.227 59.6546 38.9357 59.1985 38.811Z" fill="white"/>
<path d="M25.5766 40.2599C25.5766 39.2126 25.6909 38.1919 25.9028 37.2067L20.7995 38.8106C20.3433 38.9357 20.0386 39.2269 20.0386 39.6476V41.5782C20.0386 41.9981 20.3433 42.2814 20.7995 42.4148H25.7371C25.6319 41.7125 25.5766 40.9926 25.5766 40.2599Z" fill="white"/>
</svg>

<svg xmlns="http://www.w3.org/2000/svg" viewBox="0 0 80 80">
  <rect width="100%" height="100%" fill="#fff"/>
  <path fill="#4285F4" d="m73.18 43.31-3.39 5.86-10.56 18.29a6.11 6.11 0 0 1-5.28 3.07h-27.9a6.11 6.11 0 0 1-5.28-3.07L6.82 43.31a6.13 6.13 0 0 1 0-6.11l13.95-24.15A6.1 6.1 0 0 1 26.05 10h27.9a6.1 6.1 0 0 1 5.28 3.05L73.18 37.2a6.13 6.13 0 0 1 0 6.11Z"/>
  <path fill="#3E7AE3" d="M59.23 67.46 69.8 49.17l-10-9.98c.11.13.17.27.17.46v1.92c0 .43-.31.7-.77.85h-4.93a14.23 14.23 0 0 0-.16-5.2l5.04 1.57-18.25-18.23c.1.13.2.3.27.5l1.83 5.09a14.96 14.96 0 0 0-5.86-.02l.04-.15-.07.13 1.96 1.96a12.24 12.24 0 1 1-11.3 12.2c0-.27 0-.53.03-.78l.02-.35-1.9-1.93a14.01 14.01 0 0 0-.17 5.21H20.8c-.2-.07-.36-.16-.49-.27L48.7 70.52h5.26c2.18 0 4.2-1.17 5.28-3.06Z"/>
  <path fill="#3E7AE3" d="M40 43.06a2.8 2.8 0 1 0 0-5.6 2.8 2.8 0 0 0 0 5.6Z"/>
  <path fill="#3E7AE3" fill-rule="evenodd" d="M40 30.97a9.28 9.28 0 1 0-.01 18.57 9.28 9.28 0 0 0 0-18.57Zm.09 15.62a6.02 6.02 0 0 1-4.26-1.77l1.14-1.17a4.45 4.45 0 0 1 0-6.24 4.45 4.45 0 0 1 6.24 0l1.16-1.14a6.02 6.02 0 0 1 1.78 4.26 6.07 6.07 0 0 1-6.06 6.06Z" clip-rule="evenodd"/>
  <path fill="#fff" d="M42.99 26.15a14.45 14.45 0 0 0-5.86-.03l1.59-5.06c.12-.45.41-.76.83-.76h.77c.42 0 .7.3.84.76l1.83 5.09Z"/>
  <path fill="#fff" fill-rule="evenodd" d="m43.21 37.42 1.16-1.15a6.06 6.06 0 0 1-8.55 8.55l1.16-1.16a4.41 4.41 0 0 1 6.23-6.24ZM40 43.06a2.8 2.8 0 1 0 0-5.6 2.8 2.8 0 0 0 0 5.6Z" clip-rule="evenodd"/>
  <path fill="#fff" fill-rule="evenodd" d="M40 28.02a12.24 12.24 0 1 0 0 24.48 12.24 12.24 0 0 0 0-24.48Zm0 21.53a9.29 9.29 0 1 1 0-18.58 9.29 9.29 0 0 1 0 18.58Z" clip-rule="evenodd"/>
  <path fill="#fff" d="m59.2 38.81-5.1-1.6a14.47 14.47 0 0 1 .16 5.2h4.94c.45-.13.76-.41.76-.83v-1.93c0-.42-.3-.71-.76-.84ZM25.58 40.26c0-1.05.11-2.07.32-3.05l-5.1 1.6c-.46.13-.76.42-.76.84v1.93c0 .42.3.7.76.83h4.94c-.1-.7-.16-1.42-.16-2.15Z"/>
</svg>
